X:089
T:Bonsoir Bebe
M:3/4
C:Rees Wesson
K:F#Min
c2 B2 A2 | F6 | AB cA Bc | BA F4 |
c2 B2 A2 | F6 | AB cA Bc | e6 :||
f2 e2 c2 | e3 B ce | f2 e2 c2 | c3 B ce |
f2 e2 c2 | B2 A2 B2 | c2 B2 A2 | F6 :||
